icons/Purse_1_filled.svg

<svg width="24" height="24" viewBox="0 0 24 24" fill="none" xmlns="http://www.w3.org/2000/svg">
<path fill-rule="evenodd" clip-rule="evenodd" d="M8.25003,7c0,-2.07107 1.67893,-3.75 3.74997,-3.75c2.0711,0 3.75,1.67893 3.75,3.75v1.25h2.25c0.3382,0 0.6346,0.22637 0.7236,0.55266l1.9665,7.21064c0.6506,2.3855 -1.1452,4.7367 -3.6178,4.7367h-10.14452c-2.47265,0 -4.26846,-2.3512 -3.61786,-4.7367l1.96654,-7.21064c0.08899,-0.32629 0.38536,-0.55266 0.72357,-0.55266h2.25zM12,4.75c-1.2426,0 -2.24997,1.00736 -2.24997,2.25v1.25h4.49997v-1.25c0,-1.24264 -1.0073,-2.25 -2.25,-2.25z" fill="#002B51"/>
</svg>

<svg width="24" height="24" viewBox="0 0 24 24" fill="none" xmlns="http://www.w3.org/2000/svg">
<path fill-rule="evenodd" clip-rule="evenodd" d="M8.25003 7C8.25003 4.92893 9.92896 3.25 12 3.25C14.0711 3.25 15.75 4.92893 15.75 7V8.25H18C18.3382 8.25 18.6346 8.47637 18.7236 8.80266L20.6901 16.0133C21.3407 18.3988 19.5449 20.75 17.0723 20.75H6.92778C4.45513 20.75 2.65932 18.3988 3.30992 16.0133L5.27646 8.80266C5.36545 8.47637 5.66182 8.25 6.00003 8.25H8.25003V7ZM14.25 7V8.25H9.75003V7C9.75003 5.75736 10.7574 4.75 12 4.75C13.2427 4.75 14.25 5.75736 14.25 7Z" fill="#002B51"/>
</svg>
